X:1
T:Lady Shaftsbury's Strathspey
T:Lady Shaftsbury's Strathspey
T:Nathiel Gow
C:Nathiel Gow
L:1/8
M:2/4
K:Eb
V:1 treble 
V:1
 G/F/ | EB,G,B, | TE>FGc | BGTF>E | DFFG/F/ | .D.B,.G,.B, | TE>FGc | BGTF>G | E3 :| B | (ed).c.B | %11
{d} e2 E>c | BGTF>E | DFFB | (ed).c.B |{d} e2 E>c | BGTF>G | E3 B | (ed)cB | %19
 (TB/=A/B/).c/ (Td/c/d/).e/ | fFFF | TF>GAc | TB>cBG |{G} TFEFG | E/(F/G/)F/ EB, | E3 || %26

